X:1
T:Psalm 141
T:V 4
L:1/4
M:16/4
I:linebreak $
K:D
V:1 treble nm="Pipe Organ" snm="Org."
V:1
 F2 E D F2 A2 G F B2 A3 z |$[M:14/4] A2 B B A2 F G2 E F3 z |$ A2 G E F2 G F2 E D3 z |$ %3
w: Be- waar my hart, ge- dag- te\_en- han- del,|so- dat ek nooit die vreug mag smaak,|of deel mag neem aan fees- ver- maak|
[M:16/4] D2 F G A2 A2 F A G2 F4 |] %4
w: van wie in god- de- loos- heid wan- del.|

